!!!COM: Hugo Wolf
!!!CNT: Deutscher
!!!TXO: Deutsche 
!!!OTL: Ritter Kurts Brautfahrt
!!!ODT: 1888/12/09
!!!ONM: No. 12
!!!LYR: Johann Wolfgang von Goethe
!!!ENC: Brian Bice
!!!YOR: 45 Songs on Poems of Goethe and Eichendorff, Dover Publications, 1995
!!NB: Vocal melody and text only encoded.
**kern	**silbe
*clefG2	*
*k[b-]	*
*M4/4	*
=14	=14
{4f	{Mit
4a	des
[2cc	Bra2u-
=15	=15
8.cc]	|
16f	-ti-
8.b-	-gams
16dd	Be-
4cc	-ha-
4gg	-gen
=16	=16
4ff	schwingt
4cc	sich
4f	Rit-
4a	-ter
=17	=17
4c	Kurt
(12b-	aufs
12a	|
12g)	|
4a}	Ross;}
4r	.
=18	=18
{4f	{zu
4a	der
[2cc	Trau-
=19	=19
8cc]	|
8f	-ung
8b-	soll's
8dd	ihn
4cc	tra-
4gg	-gen,
=20	=20
4ff	auf
4cc	der
4f	ed-
4a	-len
=21	=21
(8c	Lieb-
4cc)	|
16g	-sten
16a	|
2f}	Schloss;}
=23	=23
{4.d-	{als
8d-	am
4dn	o2-
4f	-den
=24	=24
4.an	Fel-
8dd-	-sen-
4dd-	-or-
4d-	-te
=25	=25
4r	.
[4ddn	dro-
8ddn]	|
8dn	-hend
8f#	sich
8g	ein
=26	=26
4g#	Geg-
4a	-ner
2dd}	naht;}
=27	=27
2r	.
8r	.
{4b-	{oh-
8a	-ne
=28	=28
4a-	Zo2-
4f	-gern,
8r	.
[4cc	oh-
16cc]	|
16ee-	-ne
=29	=29
4dd	Wor-
4g	-te
8.f	schrei-
16g	-ten
8.a	sie
16dd	zu
=30	=30
4bn	ra-
4cc#	-scher
4dd}	Tat.}
4r	.
=41	=41
{4ff	{Lan-
4ee-	-ge
4dd	schwankt
4cc	des
=42	=42
4b-	Kemp-
4a-	-fes
4g	Wel-
4dd	-le,
=43	=43
8r	.
4an	bis
8cc	sich
4bn	Kurt
4g	im
=44	=44
4d	Sie-
4f#	-ge
2g}	freut;}
=47	=47
4r	.
{8g	{er
8g	ent-
4g	-fernt
4g	sich
=48	=48
4f	von
4a-	der
4g	Stel-
4dd	-le,
=49	=49
4r	.
8.dd	U2-
16dd	-ber
4dd	win-
4g	-der
=50	=50
4f#	und
4f#	ge-
[2fn	bla2ut.
=51	=51
4fn]}	|}
4r	.
2r	.
=53	=53
*k[b-e-a-]	*
4r	.
{4.cc	{A-
8cc	-ber
[4cc	was
=54	=54
4cc]	|
4cc	er
4cc	bald
4dd	ge-
=55	=55
4b-	-wah-
4g	-ret
4e-	in
4f	des
=56	=56
4g	Bu-
4b-	-sches
[2ee-	Zit-
=57	=57
4ee-]	|
4f	-ter-
4f}	-schein!}
4r	.
=59	=59
2r	.
8r	.
{4a-	{Mit
8b-	dem
=60	=60
4cc-	Sa2ng-
4a-	-ling
4.f	still
8ddn	ge-
=61	=61
4ee-	-paa-
4cc-	-ret
4g-	schleicht
4g-	ein
=62	=62
2.cc-	Lieb-
4ee-	-chen
=63	=63
4dd-	durch
4ee-	dan
[2ff	Hain.
=64	=64
2ff]}	|}
2r	.
=69	=69
4r	.
{8cc	{Und
8cc	sie
8cc	winkt
8cc	ihn
8cc	auf
8cc	das
=70	=70
4cc	Pla2tz-
4dd	-chen:
2r	.
=71	=71
4r	.
8.dd	Lieb-
16cc	-er
8b-	Herr,
8a-	nicht
8g	so
8b-	ge-
=72	=72
2ee-}	-schwind!}
2r	.
=73	=73
4r	.
{8an	{Habt
8an	ihr
8an	nichts
8an	an
8an	Eu-
8cc	-er
=74	=74
(8.cc	Scha2tz-
16f)	|
4f	-chen,
2r	.
=75	=75
4r	.
8cc-	habt
8cc-	ihr
8cc-	michts
8cc-	fu2r
8cc-	Eu-
8ee-	-er
=76	=76
2a}	Kind?}
2r	.
=77	=77
4r	.
{8ee-	{Ihn
8ee-	durch
8.ee-	glu2-
16ee-	-het
8ee-	su2-
8ff	-sse
=78	=78
[2gg-	Flam-
(8gg-]	|
4ff)	|
8ee-	-me,
=79	=79
4r	.
8dd-	dass
8dd-	er
8.dd-	nicht
16dd-	vor-
[4ff	-bei-
=80	=80
4ff]	|
4dd-	-be-
4b-}	-gehrt,}
4r	.
=81	=81
8r	.
{4cc	{und
8cc	er
4f	fin-
4b-	-det
=82	=82
4an	nun
4cc	die
4ee-	Am-
4dd-	-me,
=83	=83
4cc	wie
4b-	die
4ddn	Jung-
4ff	-frau,
=84	=84
(2dd	lie-
4.cc)	|
8b-	-bens-
=85	=85
*k[b-]	*
4b-}	-wert.}
4r	.
2r	.
=95	=95
2r	.
4r	.
{8f	{Doch
8f	er
=96	=96
8f	ho2rt
8f	die
8f	Die-
8f	-ner
(8.f	bla-
16cc)	|
4cc	-sen,
=97	=97
4r	.
8.cc	den-
16ff	-ket
4f	nun
4a	der
=98	=98
4c	ho-
4cc	-hen
2cc}	Braut;}
=99	=99
2r	.
4r	.
{8f	{und
8f	nun
=100	=100
8f	wird
8f	auf
8f	sei-
8f	-nen
(8.f	Stra-
16cc)	|
4cc	-ssen
=101	=101
4r	.
[4cc	Jah-
8.cc]	|
16ff	-res-
8.a	-fest
16bn	und
=102	=102
4cc	Markt
(12bn	so
12cc	|
12dd)	|
[2ee	laut,
=103	=103
8ee]}	|}
8r	.
4r	.
2r	.
=104	=104
4r	.
{8b-	{und
8b-	er
8a	wa2h-
8a	-let
8bn	in
8cc#	den
=105	=105
8a	Bu-
8d	-den
2a	man-
4ee	-ches
=106	=106
4dd	Pfand
4cc	zu
4bn	Lieb
4a	und
=107	=107
[2ee	Huld;
8ee]}	|}
8r	.
4r	.
=109	=109
*k[f#c#]	*
4r	.
{8dd	{a-
8dd	-ber
6dd	ach!
12cc#	|
4r	.
=110	=110
12r	.
12r	.
12ee	da
8ee	kom-
8ee	-men
4dd#	Ju-
4cc#	-den
=111	=111
4r	.
8ddn	mit
8ddn	dem
8cc#	Schein
8cc#	ver-
[4ee	-tag-
=112	=112
4ee]	|
4ee	-ter
(4dd#	Schuld.
4cc#)}	|}
=124	=124
*k[b-]	*
{4cc	{Und
4cc	nun
[2cc	hal-
=125	=125
8cc]	|
8cc	-ten
8cc	die
8cc	Ge-
4cc	-rich-
4c	-te
=126	=126
4d	den
4e	be-
4f#	-hen-
4g	-den
=127	=127
4g#	Rit-
4a	-ter
2dd}	auf.}
=128	=128
4r	.
{8b	{O
8b	ver-
8ee-	-teu-
8ee-	-fel-
8ee-	-te
8ee-	Ge-
=129	=129
4een	-schich-
4a-	-te!
[2ff	Hel-
=130	=130
4ff]	|
4ff	-den-
4ff	-haf-
4ff	-ter
=131	=131
4.ff-	Le-
8ee-	-bens-
2ee-}	-lauf!}
=132	=132
4r	.
{8a-	{Soll
8a-	ich
8.a-	heu-
16a-	-te
8.a-	mich
16a-	ge-
=133	=133
(8.a-	-dul-
16ee-)	|
2ee-	-den?
4r	.
=134	=134
4r	.
8ddn	die
8ddn	Ver-
8ddn	-le-
8ddn	-gen-
8ddn	-heit
8ff	ist
=135	=135
2b-}	gross.}
2r	.
=136	=136
{4.ff-	{Wi-
8ff-	-der-
4ee-	-sa-
4e-	-cher,
=137	=137
4gg-	Wei-
8ff	-ber,
8r	.
4cc-	Schul-
4b-	-den,
=138	=138
8r	.
4ee-	ach!
8gg-	kein
8.ff	Rit-
16b-	-ter
[4dd-	wird
=139	=139
4dd-]	|
4cc	sie
2ddn}	los,}
=140	=140
4r	.
{4dd	{ach!
4r	.
4dd-	kein
=141	=141
8.cc	Rit-
16ff	-ter
2ddn	wird
4ee;	sie
=142	=142
2ff}	los.}
2r	.
*-	*-
